images/5011.svg

<?xml version="1.0" encoding="UTF-8"?>
<svg xmlns="http://www.w3.org/2000/svg" xmlns:xlink="http://www.w3.org/1999/xlink" width="300pt" height="300pt" viewBox="0 0 300 300" version="1.1">
<defs>
<g>
<symbol overflow="visible" id="glyph0-0">
<path style="stroke:none;" d="M 0.640625 2.296875 L 0.640625 -9.171875 L 7.140625 -9.171875 L 7.140625 2.296875 Z M 1.375 1.578125 L 6.421875 1.578125 L 6.421875 -8.4375 L 1.375 -8.4375 Z M 1.375 1.578125 "/>
</symbol>
<symbol overflow="visible" id="glyph0-1">
<path style="stroke:none;" d="M 1.28125 -9.484375 L 3 -9.484375 L 7.203125 -1.546875 L 7.203125 -9.484375 L 8.453125 -9.484375 L 8.453125 0 L 6.71875 0 L 2.515625 -7.921875 L 2.515625 0 L 1.28125 0 Z M 1.28125 -9.484375 "/>
</symbol>
<symbol overflow="visible" id="glyph0-2">
<path style="stroke:none;" d="M 1.28125 -9.484375 L 2.5625 -9.484375 L 2.5625 -5.59375 L 7.21875 -5.59375 L 7.21875 -9.484375 L 8.5 -9.484375 L 8.5 0 L 7.21875 0 L 7.21875 -4.515625 L 2.5625 -4.515625 L 2.5625 0 L 1.28125 0 Z M 1.28125 -9.484375 "/>
</symbol>
</g>
</defs>
<g id="surface31185">
<rect x="0" y="0" width="300" height="300" style="fill:rgb(100%,100%,100%);fill-opacity:1;stroke:none;"/>
<path style="fill:none;stroke-width:1.2;stroke-linecap:butt;stroke-linejoin:miter;stroke:rgb(0%,0%,0%);stroke-opacity:1;stroke-miterlimit:10;" d="M 47.296875 130.726562 L 81.804688 124.714844 "/>
<path style="fill:none;stroke-width:1.2;stroke-linecap:butt;stroke-linejoin:miter;stroke:rgb(0%,0%,100%);stroke-opacity:1;stroke-miterlimit:10;" d="M 35.25 163.617188 L 41.273438 147.171875 "/>
<path style="fill:none;stroke-width:1.2;stroke-linecap:butt;stroke-linejoin:miter;stroke:rgb(0%,0%,0%);stroke-opacity:1;stroke-miterlimit:10;" d="M 41.273438 147.171875 L 47.296875 130.726562 "/>
<path style="fill:none;stroke-width:1.2;stroke-linecap:butt;stroke-linejoin:miter;stroke:rgb(0%,0%,0%);stroke-opacity:1;stroke-miterlimit:10;" d="M 81.804688 124.714844 L 93.035156 138.152344 "/>
<path style="fill:none;stroke-width:1.2;stroke-linecap:butt;stroke-linejoin:miter;stroke:rgb(0%,0%,100%);stroke-opacity:1;stroke-miterlimit:10;" d="M 93.035156 138.152344 L 104.261719 151.589844 "/>
<path style="fill:none;stroke-width:1.2;stroke-linecap:butt;stroke-linejoin:miter;stroke:rgb(0%,0%,100%);stroke-opacity:1;stroke-miterlimit:10;" d="M 104.261719 151.589844 L 98.238281 168.035156 "/>
<path style="fill:none;stroke-width:1.2;stroke-linecap:butt;stroke-linejoin:miter;stroke:rgb(0%,0%,0%);stroke-opacity:1;stroke-miterlimit:10;" d="M 98.238281 168.035156 L 92.214844 184.480469 "/>
<path style="fill:none;stroke-width:1.2;stroke-linecap:butt;stroke-linejoin:miter;stroke:rgb(0%,0%,100%);stroke-opacity:1;stroke-miterlimit:10;" d="M 104.261719 151.589844 L 121.515625 148.585938 "/>
<path style="fill:none;stroke-width:1.2;stroke-linecap:butt;stroke-linejoin:miter;stroke:rgb(0%,0%,0%);stroke-opacity:1;stroke-miterlimit:10;" d="M 121.515625 148.585938 L 138.769531 145.578125 "/>
<path style=" stroke:none;fill-rule:nonzero;fill:rgb(100%,100%,100%);fill-opacity:1;" d="M 99.261719 143.589844 L 109.261719 143.589844 L 109.261719 159.589844 L 99.261719 159.589844 Z M 99.261719 143.589844 "/>
<g style="fill:rgb(0%,0%,100%);fill-opacity:1;">
  <use xlink:href="#glyph0-1" x="99.261719" y="155.96582"/>
</g>
<path style="fill:none;stroke-width:1.2;stroke-linecap:butt;stroke-linejoin:miter;stroke:rgb(0%,0%,0%);stroke-opacity:1;stroke-miterlimit:10;" d="M 92.214844 184.480469 L 57.710938 190.492188 "/>
<path style="fill:none;stroke-width:1.2;stroke-linecap:butt;stroke-linejoin:miter;stroke:rgb(0%,0%,0%);stroke-opacity:1;stroke-miterlimit:10;" d="M 57.710938 190.492188 L 46.480469 177.054688 "/>
<path style="fill:none;stroke-width:1.2;stroke-linecap:butt;stroke-linejoin:miter;stroke:rgb(0%,0%,100%);stroke-opacity:1;stroke-miterlimit:10;" d="M 46.480469 177.054688 L 35.25 163.617188 "/>
<path style=" stroke:none;fill-rule:nonzero;fill:rgb(100%,100%,100%);fill-opacity:1;" d="M 25.25 155.617188 L 45.25 155.617188 L 45.25 171.617188 L 25.25 171.617188 Z M 25.25 155.617188 "/>
<g style="fill:rgb(0%,0%,100%);fill-opacity:1;">
  <use xlink:href="#glyph0-1" x="25.25" y="167.993164"/>
  <use xlink:href="#glyph0-2" x="35.219727" y="167.993164"/>
</g>
<path style="fill:none;stroke-width:1.2;stroke-linecap:butt;stroke-linejoin:miter;stroke:rgb(0%,0%,0%);stroke-opacity:1;stroke-miterlimit:10;" d="M 138.769531 145.578125 L 150 159.019531 "/>
<path style="fill:none;stroke-width:1.2;stroke-linecap:butt;stroke-linejoin:miter;stroke:rgb(0%,0%,100%);stroke-opacity:1;stroke-miterlimit:10;" d="M 150 159.019531 L 161.230469 172.457031 "/>
<path style="fill:none;stroke-width:1.2;stroke-linecap:butt;stroke-linejoin:miter;stroke:rgb(0%,0%,0%);stroke-opacity:1;stroke-miterlimit:10;" d="M 147.339844 142.984375 L 156.324219 153.734375 "/>
<path style="fill:none;stroke-width:1.2;stroke-linecap:butt;stroke-linejoin:miter;stroke:rgb(0%,0%,100%);stroke-opacity:1;stroke-miterlimit:10;" d="M 156.324219 153.734375 L 165.308594 164.484375 "/>
<path style="fill:none;stroke-width:1.2;stroke-linecap:butt;stroke-linejoin:miter;stroke:rgb(0%,0%,0%);stroke-opacity:1;stroke-miterlimit:10;" d="M 150.816406 112.691406 L 138.769531 145.578125 "/>
<path style="fill:none;stroke-width:1.2;stroke-linecap:butt;stroke-linejoin:miter;stroke:rgb(0%,0%,100%);stroke-opacity:1;stroke-miterlimit:10;" d="M 161.230469 172.457031 L 178.484375 169.449219 "/>
<path style="fill:none;stroke-width:1.2;stroke-linecap:butt;stroke-linejoin:miter;stroke:rgb(0%,0%,0%);stroke-opacity:1;stroke-miterlimit:10;" d="M 178.484375 169.449219 L 195.738281 166.445312 "/>
<path style=" stroke:none;fill-rule:nonzero;fill:rgb(100%,100%,100%);fill-opacity:1;" d="M 156.230469 164.457031 L 166.230469 164.457031 L 166.230469 180.457031 L 156.230469 180.457031 Z M 156.230469 164.457031 "/>
<g style="fill:rgb(0%,0%,100%);fill-opacity:1;">
  <use xlink:href="#glyph0-1" x="156.230469" y="176.833008"/>
</g>
<path style="fill:none;stroke-width:1.2;stroke-linecap:butt;stroke-linejoin:miter;stroke:rgb(0%,0%,0%);stroke-opacity:1;stroke-miterlimit:10;" d="M 195.738281 166.445312 L 218.195312 193.324219 "/>
<path style="fill:none;stroke-width:1.2;stroke-linecap:butt;stroke-linejoin:miter;stroke:rgb(0%,0%,0%);stroke-opacity:1;stroke-miterlimit:10;" d="M 204.308594 163.847656 L 222.273438 185.351562 "/>
<path style="fill:none;stroke-width:1.2;stroke-linecap:butt;stroke-linejoin:miter;stroke:rgb(0%,0%,0%);stroke-opacity:1;stroke-miterlimit:10;" d="M 207.785156 133.554688 L 195.738281 166.445312 "/>
<path style="fill:none;stroke-width:1.2;stroke-linecap:butt;stroke-linejoin:miter;stroke:rgb(0%,0%,0%);stroke-opacity:1;stroke-miterlimit:10;" d="M 218.195312 193.324219 L 252.703125 187.308594 "/>
<path style="fill:none;stroke-width:1.2;stroke-linecap:butt;stroke-linejoin:miter;stroke:rgb(0%,0%,0%);stroke-opacity:1;stroke-miterlimit:10;" d="M 252.703125 187.308594 L 264.75 154.421875 "/>
<path style="fill:none;stroke-width:1.2;stroke-linecap:butt;stroke-linejoin:miter;stroke:rgb(0%,0%,0%);stroke-opacity:1;stroke-miterlimit:10;" d="M 246.167969 181.1875 L 255.804688 154.875 "/>
<path style="fill:none;stroke-width:1.2;stroke-linecap:butt;stroke-linejoin:miter;stroke:rgb(0%,0%,0%);stroke-opacity:1;stroke-miterlimit:10;" d="M 264.75 154.421875 L 242.289062 127.542969 "/>
<path style="fill:none;stroke-width:1.2;stroke-linecap:butt;stroke-linejoin:miter;stroke:rgb(0%,0%,0%);stroke-opacity:1;stroke-miterlimit:10;" d="M 242.289062 127.542969 L 207.785156 133.554688 "/>
<path style="fill:none;stroke-width:1.2;stroke-linecap:butt;stroke-linejoin:miter;stroke:rgb(0%,0%,0%);stroke-opacity:1;stroke-miterlimit:10;" d="M 240.253906 136.261719 L 212.648438 141.074219 "/>
<path style="fill:none;stroke-width:1.2;stroke-linecap:butt;stroke-linejoin:miter;stroke:rgb(0%,0%,0%);stroke-opacity:1;stroke-miterlimit:10;" d="M 207.785156 133.554688 L 185.324219 106.675781 "/>
<path style="fill:none;stroke-width:1.2;stroke-linecap:butt;stroke-linejoin:miter;stroke:rgb(0%,0%,0%);stroke-opacity:1;stroke-miterlimit:10;" d="M 185.324219 106.675781 L 150.816406 112.691406 "/>
<path style="fill:none;stroke-width:1.2;stroke-linecap:butt;stroke-linejoin:miter;stroke:rgb(0%,0%,0%);stroke-opacity:1;stroke-miterlimit:10;" d="M 183.289062 115.398438 L 155.683594 120.207031 "/>
</g>
</svg>

<svg xmlns="http://www.w3.org/2000/svg" xmlns:xlink="http://www.w3.org/1999/xlink" width="300pt" height="300pt" viewBox="0 0 300 300"><defs><symbol overflow="visible"><path d="M.64 2.297v-11.47h6.5v11.47zm.735-.72h5.047V-8.436H1.375zm0 0"/></symbol><symbol overflow="visible" id="a"><path d="M1.28-9.484H3l4.203 7.937v-7.937h1.25V0H6.72L2.515-7.922V0H1.28zm0 0"/></symbol><symbol overflow="visible" id="b"><path d="M1.28-9.484h1.282v3.89H7.22v-3.89H8.5V0H7.22v-4.516H2.562V0H1.28zm0 0"/></symbol></defs><g><path fill="#fff" d="M0 0h300v300H0z"/><path d="M47.297 130.727l34.508-6.012" stroke-width="1.2" stroke="#000" stroke-miterlimit="10" fill="none"/><path d="M35.25 163.617l6.023-16.445" stroke-width="1.2" stroke="#00f" stroke-miterlimit="10" fill="none"/><path d="M41.273 147.172l6.024-16.445M81.805 124.715l11.23 13.437" stroke-width="1.2" stroke="#000" stroke-miterlimit="10" fill="none"/><path d="M93.035 138.152l11.227 13.438M104.262 151.59l-6.024 16.445" stroke-width="1.2" stroke="#00f" stroke-miterlimit="10" fill="none"/><path d="M98.238 168.035l-6.023 16.445" stroke-width="1.2" stroke="#000" stroke-miterlimit="10" fill="none"/><path d="M104.262 151.59l17.254-3.004" stroke-width="1.2" stroke="#00f" stroke-miterlimit="10" fill="none"/><path d="M121.516 148.586l17.254-3.008" stroke-width="1.2" stroke="#000" stroke-miterlimit="10" fill="none"/><path d="M99.262 143.59h10v16h-10zm0 0" fill="#fff"/><use xlink:href="#a" x="99.262" y="155.966" fill="#00f"/><path d="M92.215 184.48l-34.504 6.012M57.71 190.492l-11.23-13.437" stroke-width="1.2" stroke="#000" stroke-miterlimit="10" fill="none"/><path d="M46.48 177.055l-11.23-13.438" stroke-width="1.2" stroke="#00f" stroke-miterlimit="10" fill="none"/><path d="M25.25 155.617h20v16h-20zm0 0" fill="#fff"/><g fill="#00f"><use xlink:href="#a" x="25.25" y="167.993"/><use xlink:href="#b" x="35.22" y="167.993"/></g><path d="M138.77 145.578L150 159.02" stroke-width="1.2" stroke="#000" stroke-miterlimit="10" fill="none"/><path d="M150 159.02l11.23 13.437" stroke-width="1.2" stroke="#00f" stroke-miterlimit="10" fill="none"/><path d="M147.34 142.984l8.984 10.75" stroke-width="1.2" stroke="#000" stroke-miterlimit="10" fill="none"/><path d="M156.324 153.734l8.985 10.75" stroke-width="1.2" stroke="#00f" stroke-miterlimit="10" fill="none"/><path d="M150.816 112.69L138.77 145.58" stroke-width="1.2" stroke="#000" stroke-miterlimit="10" fill="none"/><path d="M161.23 172.457l17.254-3.008" stroke-width="1.2" stroke="#00f" stroke-miterlimit="10" fill="none"/><path d="M178.484 169.45l17.254-3.005" stroke-width="1.2" stroke="#000" stroke-miterlimit="10" fill="none"/><path d="M156.23 164.457h10v16h-10zm0 0" fill="#fff"/><use xlink:href="#a" x="156.23" y="176.833" fill="#00f"/><path d="M195.738 166.445l22.457 26.88M204.31 163.848l17.963 21.504M207.785 133.555l-12.047 32.89M218.195 193.324l34.508-6.015M252.703 187.31l12.047-32.888M246.168 181.188l9.637-26.313M264.75 154.422l-22.46-26.88M242.29 127.543l-34.505 6.012M240.254 136.262l-27.606 4.812M207.785 133.555l-22.46-26.88M185.324 106.676l-34.508 6.015M183.29 115.398l-27.606 4.81" stroke-width="1.2" stroke="#000" stroke-miterlimit="10" fill="none"/></g></svg>
